public/logos/RS.svg

<?xml version="1.0" encoding="UTF-8"?>
<svg xmlns="http://www.w3.org/2000/svg" xmlns:xlink="http://www.w3.org/1999/xlink" width="176pt" height="24.37pt" viewBox="0 0 176 24.37" version="1.1">
<defs>
<clipPath id="clip1">
  <path d="M 66 0 L 84 0 L 84 24.371094 L 66 24.371094 Z M 66 0 "/>
</clipPath>
<clipPath id="clip2">
  <path d="M 106 0 L 132 0 L 132 24.371094 L 106 24.371094 Z M 106 0 "/>
</clipPath>
<clipPath id="clip3">
  <path d="M 136 0 L 157 0 L 157 24.371094 L 136 24.371094 Z M 136 0 "/>
</clipPath>
</defs>
<g id="surface1">
<path style=" stroke:none;fill-rule:nonzero;fill:rgb(25.78125%,74.351501%,57.061768%);fill-opacity:1;" d="M 8.777344 0.75 L 0 23.613281 L 6.285156 23.613281 L 12.027344 7.796875 L 17.59375 23.613281 L 23.878906 23.613281 L 15.273438 0.75 L 8.777344 0.75 "/>
<path style=" stroke:none;fill-rule:nonzero;fill:rgb(25.78125%,74.351501%,57.061768%);fill-opacity:1;" d="M 27.507812 0.75 L 33.496094 0.75 L 33.496094 23.613281 L 27.507812 23.613281 L 27.507812 0.75 "/>
<path style=" stroke:none;fill-rule:nonzero;fill:rgb(25.78125%,74.351501%,57.061768%);fill-opacity:1;" d="M 49.359375 10.453125 C 47.984375 11.246094 45.984375 11.027344 45.984375 11.027344 L 45.984375 5.308594 C 46.988281 5.21875 48 5.328125 48.964844 5.628906 C 50.011719 5.957031 50.707031 6.945312 50.667969 8.042969 C 50.746094 9.03125 50.234375 9.976562 49.359375 10.453125 Z M 56.035156 11.257812 C 57.46875 8.667969 56.867188 5.089844 55.738281 3.636719 C 54.605469 2.183594 52.742188 0.75 48.703125 0.75 L 40 0.75 L 40 23.613281 L 45.988281 23.613281 L 45.988281 14.765625 L 51.980469 23.613281 L 58.949219 23.613281 L 51.878906 14.238281 C 53.632812 13.894531 55.152344 12.808594 56.035156 11.257812 "/>
<g clip-path="url(#clip1)" clip-rule="nonzero">
<path style=" stroke:none;fill-rule:nonzero;fill:rgb(25.78125%,74.351501%,57.061768%);fill-opacity:1;" d="M 75.558594 8.90625 C 74.386719 8.507812 73.796875 7.832031 73.882812 6.925781 C 74.039062 5.933594 74.84375 5.167969 75.84375 5.066406 C 78.0625 4.742188 80.46875 6.460938 80.46875 6.460938 L 82.722656 2.070312 C 80.433594 0.652344 77.757812 -0.015625 75.066406 0.160156 C 70.507812 0.410156 67.90625 3.550781 67.703125 7.125 C 67.519531 10.039062 68.871094 12.546875 72.878906 13.9375 C 74.3125 14.429688 76.453125 14.832031 77.167969 15.910156 C 78.097656 17.273438 77.167969 19.660156 73.796875 19.125 C 71.492188 18.75 69.277344 16.898438 69.277344 16.898438 L 66.761719 21.617188 C 69.453125 23.511719 72.71875 24.421875 76.003906 24.191406 C 83.785156 23.582031 84.617188 16.347656 83.09375 13.402344 C 81.574219 10.453125 77.921875 9.703125 75.558594 8.90625 "/>
</g>
<path style=" stroke:none;fill-rule:nonzero;fill:rgb(25.78125%,74.351501%,57.061768%);fill-opacity:1;" d="M 94.785156 14.613281 L 101.199219 14.613281 L 101.199219 9.621094 L 94.824219 9.621094 L 94.824219 5.59375 L 101.582031 5.59375 L 101.582031 0.75 L 88.914062 0.75 L 88.914062 23.613281 L 101.898438 23.613281 L 101.898438 18.613281 L 94.785156 18.613281 L 94.785156 14.613281 "/>
<g clip-path="url(#clip2)" clip-rule="nonzero">
<path style=" stroke:none;fill-rule:nonzero;fill:rgb(25.78125%,74.351501%,57.061768%);fill-opacity:1;" d="M 118.777344 18.65625 C 115.203125 18.679688 112.285156 15.800781 112.265625 12.226562 C 112.238281 8.652344 115.121094 5.734375 118.695312 5.710938 C 122.238281 5.6875 125.144531 8.519531 125.210938 12.066406 C 125.296875 15.617188 122.492188 18.566406 118.941406 18.65625 C 118.886719 18.65625 118.832031 18.65625 118.777344 18.65625 Z M 118.777344 0.00390625 C 111.855469 0.00390625 106.292969 5.210938 106.292969 12.113281 C 106.292969 19.3125 111.335938 24.371094 118.777344 24.371094 C 126.222656 24.371094 131.289062 19.296875 131.289062 12.113281 C 131.289062 5.210938 125.707031 0.00390625 118.777344 0.00390625 "/>
</g>
<g clip-path="url(#clip3)" clip-rule="nonzero">
<path style=" stroke:none;fill-rule:nonzero;fill:rgb(25.78125%,74.351501%,57.061768%);fill-opacity:1;" d="M 150.753906 14.246094 C 150.753906 18.289062 148.449219 19.039062 146.917969 19.039062 C 145.386719 19.039062 142.738281 18.503906 142.738281 14.132812 L 142.738281 0.738281 L 136.796875 0.738281 L 136.796875 14.296875 C 136.796875 21.363281 140.78125 24.230469 146.976562 24.230469 C 153.0625 24.230469 156.695312 20.816406 156.695312 14.585938 L 156.695312 0.75 L 150.753906 0.75 L 150.753906 14.246094 "/>
</g>
<path style=" stroke:none;fill-rule:nonzero;fill:rgb(25.78125%,74.351501%,57.061768%);fill-opacity:1;" d="M 169.109375 18.648438 L 169.109375 0.75 L 163.199219 0.75 L 163.199219 23.613281 L 176 23.613281 L 176 18.648438 L 169.109375 18.648438 "/>
</g>
</svg>

<svg xmlns="http://www.w3.org/2000/svg" width="176pt" height="32.493" viewBox="0 0 176 24.37"><defs><clipPath id="a"><path d="M66 0h18v24.371H66Zm0 0"/></clipPath><clipPath id="b"><path d="M106 0h26v24.371h-26Zm0 0"/></clipPath><clipPath id="c"><path d="M136 0h21v24.371h-21Zm0 0"/></clipPath></defs><path d="M8.777.75 0 23.613h6.285l5.742-15.816 5.567 15.816h6.285L15.273.75zM27.508.75h5.988v22.863h-5.988zM49.36 10.453c-1.376.793-3.376.574-3.376.574V5.31a7.7 7.7 0 0 1 2.98.32 2.436 2.436 0 0 1 1.704 2.414 2.52 2.52 0 0 1-1.309 2.41m6.675.805c1.434-2.59.832-6.168-.297-7.621C54.605 2.184 52.742.75 48.703.75H40v22.863h5.988v-8.847l5.992 8.847h6.97l-7.071-9.375a6.14 6.14 0 0 0 4.156-2.98" style="stroke:none;fill-rule:nonzero;fill:#42be92;fill-opacity:1"/><g clip-path="url(#a)"><path d="M75.559 8.906c-1.172-.398-1.762-1.074-1.676-1.98a2.214 2.214 0 0 1 1.96-1.86c2.22-.324 4.626 1.395 4.626 1.395l2.254-4.39A12.94 12.94 0 0 0 75.066.16c-4.558.25-7.16 3.39-7.363 6.964-.183 2.914 1.168 5.422 5.176 6.813 1.433.492 3.574.894 4.289 1.972.93 1.363 0 3.75-3.371 3.215-2.305-.375-4.52-2.227-4.52-2.227l-2.515 4.72a14.32 14.32 0 0 0 9.242 2.573c7.781-.609 8.613-7.843 7.09-10.789-1.52-2.949-5.172-3.699-7.535-4.496" style="stroke:none;fill-rule:nonzero;fill:#42be92;fill-opacity:1"/></g><path d="M94.785 14.613h6.414V9.621h-6.375V5.594h6.758V.75H88.914v22.863h12.984v-5h-7.113z" style="stroke:none;fill-rule:nonzero;fill:#42be92;fill-opacity:1"/><g clip-path="url(#b)"><path d="M118.777 18.656a6.47 6.47 0 0 1-6.511-6.43 6.47 6.47 0 0 1 6.43-6.515 6.476 6.476 0 0 1 6.515 6.355 6.435 6.435 0 0 1-6.27 6.59zm0-18.652c-6.922 0-12.484 5.207-12.484 12.11 0 7.198 5.043 12.257 12.484 12.257 7.446 0 12.512-5.074 12.512-12.258 0-6.902-5.582-12.11-12.512-12.11" style="stroke:none;fill-rule:nonzero;fill:#42be92;fill-opacity:1"/></g><g clip-path="url(#c)"><path d="M150.754 14.246c0 4.043-2.305 4.793-3.836 4.793s-4.18-.535-4.18-4.906V.738h-5.941v13.559c0 7.066 3.984 9.933 10.18 9.933 6.085 0 9.718-3.414 9.718-9.644V.75h-5.941z" style="stroke:none;fill-rule:nonzero;fill:#42be92;fill-opacity:1"/></g><path d="M169.11 18.648V.75h-5.91v22.863H176v-4.965z" style="stroke:none;fill-rule:nonzero;fill:#42be92;fill-opacity:1"/></svg>
